!!!COM: Ernest Chausson
!!!CNT: Francais
!!!TXO: Francais
!!!OTL: "Les couronnes"
!!!LYR: Mauclair
!!!OPR: Trois lieder
!!!OPS: Op. 27
!!!ONM: No. 3
!!!ENC: Emily Thomas
!!!YOR: CD Sheet Music French Art Songs, The Ultimate Collection
!!!YOR: CD Sheet Music, LLC 2003
!!!ODT: 1896/
!!NB: Vocal melody and text encoded.
**kern	**silbe
=1	=1
*clefG2	*
*k[]	*
*M4/4	*
*MM[Calme]	*
1r	.
=2	=2
1r	.
=3	=3
1r	.
=4	=4
8r	.
{8g	{C'est
8g	la
8g	fill-
8a	-ette
8a	aux
8b	yeux
8b	cer-
=5	=5
2g}	-ne/s,}
8r	.
{8a	{A-
8b	-vec
8cc	son
=6	=6
4cc	air
8b	e/-
8a	-ton-
2b}	-ne/}
=7	=7
8r	.
{8b	{Et
8b	ses
8cc	trios
4cc	fre^-
8b	-les
8a	cou-
=8	=8
2g	-nel-
4g}	-le,}
4r	.
=9	=9
{4b-	{L'au-
8b-	-tre
8b-	de
4b-	vigne
8cc	en
8dd	den-
=10	=10
2dd	-tel-
4g}	-le,}
4r	.
=11	=11
8r	.
{8b-	{Dans
8a	la
8g	trios-
4g	ie\me
8g	u-
8g	-ne
=12	=12
2a	ro-
4b-	-se
4cc	d'au-
=13	=13
4a-	-tom-
4a-}	-ne.}
2r	.
=14	=14
8r	.
{8f	{La
8f	pim-
8f	-pre-
8a-	-nelle
8a-	est
8cc	pour
8dd	son
=15	=15
4.dd	a^-
8dd}	-me,}
4r	.
{4dd	{La
=16	=16
2dd	vigne
8g	est
8g	pour
8g	l'a-
8a	-mu-
=17	=17
2a}	-ser,}
4r	.
8r	.
{8dd	{La
=18	=18
2.gg	ro-
4b	-se
=19	=19
8r	.
8cc#	a\
8cc#	qui
8cc#	vou-
4b	-dra
4a	l'ai-
=20	=20
2a}	-mer.}
2r	.
=21	=21
1r	.
=22	=22
8r	.
{8g	{Beau
8g	che-
8a	-va-
2a}	-lier!}
=23	=23
1r	.
=24	=24
1r	.
=25	=25
8r	.
{8dd	{Beau
8dd	che-
8ee	-va-
2ee}	-lier!}
=26	=26
1r	.
=27	=27
1r	.
=28	=28
1r	.
=29	=29
1r	.
=30	=30
2r	.
8r	.
{8g	{mais
8g	il
8g	ne
=31	=31
4.a-	pas-
8a-	-se
4b-	plus
4b-	per-
=32	=32
4g	-son-
4g}	-ne,}
8r	.
{8a-	{Et
8b-	la
8cc	fil-
=33	=33
8cc	-lette
8cc	aux
8b-	yeux
8a-	cer-
2b-	ne/s
=34	=34
8bn	A
8bn	lais-
8bn	-se/
8bn	tom-
4cc	-ber
8b-	les
8a-	cou-
=35	=35
1g	-ron-
=36	=36
1f	|
=37	=37
[2e-	-nes.
4e-]}	|}
4r	.
==	==
*-	*-
